Lila_HD/places/scalable/ubuntustudio_badge-symbolic.svg

<?xml version="1.0" encoding="UTF-8" standalone="no"?>
<!-- Created with Inkscape (http://www.inkscape.org/) -->

<svg
   xmlns:dc="http://purl.org/dc/elements/1.1/"
   xmlns:cc="http://creativecommons.org/ns#"
   xmlns:rdf="http://www.w3.org/1999/02/22-rdf-syntax-ns#"
   xmlns:svg="http://www.w3.org/2000/svg"
   xmlns="http://www.w3.org/2000/svg"
   xmlns:xlink="http://www.w3.org/1999/xlink"
   xmlns:sodipodi="http://sodipodi.sourceforge.net/DTD/sodipodi-0.dtd"
   xmlns:inkscape="http://www.inkscape.org/namespaces/inkscape"
   version="1.1"
   width="16"
   height="16"
   id="svg2"
   inkscape:version="0.48.4 r9939"
   sodipodi:docname="ubuntustudio_badge-symbolic.svg">
  <sodipodi:namedview
     pagecolor="#ffffff"
     bordercolor="#666666"
     borderopacity="1"
     objecttolerance="10"
     gridtolerance="10"
     guidetolerance="10"
     inkscape:pageopacity="0"
     inkscape:pageshadow="2"
     inkscape:window-width="1280"
     inkscape:window-height="975"
     id="namedview3007"
     showgrid="false"
     fit-margin-top="10"
     fit-margin-left="10"
     fit-margin-right="10"
     fit-margin-bottom="10"
     inkscape:zoom="0.87857143"
     inkscape:cx="29.593496"
     inkscape:cy="219.95761"
     inkscape:window-x="1280"
     inkscape:window-y="25"
     inkscape:window-maximized="1"
     inkscape:current-layer="svg2" />
  <title
     id="title14594">Ubuntu Studio v3</title>
  <defs
     id="defs4">
    <linearGradient
       id="linearGradient3927">
      <stop
         id="stop3929"
         style="stop-color:#000000;stop-opacity:1"
         offset="0" />
      <stop
         id="stop3931"
         style="stop-color:#525252;stop-opacity:1"
         offset="1" />
    </linearGradient>
    <linearGradient
       x1="-654.12848"
       y1="579.76819"
       x2="-654.12848"
       y2="402.60345"
       id="linearGradient3933"
       xlink:href="#linearGradient3927"
       gradientUnits="userSpaceOnUse"
       gradientTransform="matrix(0.94157008,0,0,1,-52.592035,0)" />
  </defs>
  <metadata
     id="metadata7">
    <rdf:RDF>
      <cc:Work
         rdf:about="">
        <dc:format>image/svg+xml</dc:format>
        <dc:type
           rdf:resource="http://purl.org/dc/dcmitype/StillImage" />
        <dc:title>Ubuntu Studio v3</dc:title>
        <dc:creator>
          <cc:Agent>
            <dc:title>Cory Kontros</dc:title>
          </cc:Agent>
        </dc:creator>
        <dc:description>New Ubuntu Studio logo based on the Ubuntu logo 1st used in Ubuntu 10.04.</dc:description>
        <dc:date>August 8th 2010</dc:date>
      </cc:Work>
    </rdf:RDF>
  </metadata>
  <path
     inkscape:connector-curvature="0"
     style="fill:#bebebe;fill-opacity:1;stroke:none"
     id="path10060-3"
     d="M 8.000001,0 C 3.57571,0 0,3.568245 0,7.9832988 0,12.398353 3.57571,16 8.000001,16 12.424292,16 16,12.398353 16,7.9832988 16,3.568245 12.424292,0 8.000001,0 z M 9.67364,1.2359064 c 0.08687,-0.010882 0.178272,-0.025024 0.267784,0 1.193793,0.3339973 2.212985,0.9188547 3.079496,1.8037585 0.07531,0.074931 0.134495,0.1996918 0.167367,0.3006274 0.06255,0.1868842 0.02624,0.3725845 -0.06695,0.5344473 -0.05591,0.097162 -0.13254,0.1732897 -0.234308,0.2338202 C 12.615634,4.2699943 12.266146,4.2385049 12.050207,4.0084047 11.326562,3.2693923 10.570197,2.8176039 9.573221,2.5386732 9.215151,2.4387342 9.037881,2.0609116 9.138074,1.703604 9.213264,1.4356076 9.413021,1.2684986 9.673636,1.2359595 z M 7.966531,3.3068876 c 1.217541,0 2.422423,0.4465942 3.347278,1.369524 1.849713,1.8458482 1.849713,4.8681244 0,6.7139844 -1.849722,1.84586 -4.844846,1.845852 -6.694563,0 -0.166055,-0.161093 -0.259712,-0.411138 -0.200837,-0.634657 0.05892,-0.223513 0.244641,-0.37548 0.46862,-0.434234 0.223985,-0.05879 0.474555,9.9e-4 0.635983,0.167013 1.358388,1.355549 3.528648,1.355549 4.887032,0 1.358386,-1.3555534 1.358386,-3.5546794 0,-4.9102286 C 9.05166,4.222736 6.8814,4.222736 5.523012,5.5782894 5.284322,5.8405741 4.882082,5.8832846 4.619246,5.6450924 4.356412,5.4069011 4.313612,4.9720966 4.552306,4.7098087 c 0.01381,-0.015307 0.05163,-0.019539 0.06694,-0.033344 0.92486,-0.9229298 2.129741,-1.369525 3.347285,-1.369525 z m 0,2.2045939 c 0.647037,0 1.283672,0.2455059 1.774057,0.7348619 0.980778,0.978735 0.980778,2.5953821 0,3.574117 -0.980782,0.9787286 -2.567337,0.9787286 -3.548119,0 -0.980778,-0.9787349 -0.980778,-2.595382 0,-3.574117 C 6.682854,5.7569874 7.319492,5.5114815 7.966531,5.5114815 z M 1.874478,5.7453014 c 0.112244,-9.903e-4 0.230649,0.010689 0.334726,0.066805 0.277554,0.1506284 0.389529,0.4655354 0.301258,0.7682674 -0.267988,0.9980441 -0.267988,1.8746039 0,2.8726543 0.0964,0.3583548 -0.109523,0.7054539 -0.468621,0.8016649 -0.359107,0.0962 -0.740408,-0.109289 -0.83682,-0.4676367 -0.320888,-1.1950886 -0.320888,-2.3456352 0,-3.5407136 C 1.231271,6.1435184 1.302171,6.0588091 1.372388,5.97912 1.501563,5.8300843 1.687417,5.7478258 1.874478,5.7453007 z m 2.041841,0.5678504 c 0.13628,-0.013907 0.278515,0.025026 0.401674,0.100155 0.246317,0.1502982 0.380735,0.4578806 0.301253,0.734864 -0.170435,0.6347423 -0.170435,1.1356132 0,1.7703585 C 4.711146,9.2605211 4.493335,9.6284399 4.150628,9.7201931 3.807921,9.8119061 3.472699,9.5945463 3.380754,9.2525542 3.159768,8.4295618 3.159768,7.637135 3.380754,6.8141432 3.410974,6.6944902 3.457664,6.5642122 3.54812,6.4801148 3.653517,6.3816688 3.780041,6.326975 3.916319,6.3130984 z m 4.050212,0.4342404 c -0.327663,0 -0.651314,0.1489051 -0.903768,0.400832 -0.504911,0.503857 -0.504911,1.2999031 0,1.8037563 0.504909,0.5038564 1.302622,0.5038564 1.807533,0 0.504909,-0.5038532 0.504897,-1.2998993 0,-1.8037563 C 8.61784,6.8962973 8.294186,6.7473922 7.966531,6.7473922 z m 4.384936,5.1440488 c 0.147247,-0.02 0.299777,0.01891 0.435145,0.100156 0.101543,0.06093 0.178761,0.136474 0.234308,0.233819 0.09255,0.162237 0.130283,0.381209 0.06695,0.567849 -0.03331,0.100797 -0.0918,0.192573 -0.167365,0.267225 -0.870014,0.881462 -1.884383,1.441083 -3.079496,1.770354 -0.358456,0.09855 -0.738043,-0.109925 -0.83682,-0.467642 -0.09876,-0.357706 0.110155,-0.703098 0.468619,-0.801669 0.998079,-0.274985 1.750405,-0.733595 2.476987,-1.469729 0.108429,-0.11465 0.254425,-0.18046 0.401674,-0.200416 z" />
</svg>

<?xml version="1.0" encoding="UTF-8"?>
<!-- Created with Inkscape (http://www.inkscape.org/) -->
<svg version="1.1" viewBox="0 0 16 16" xmlns="http://www.w3.org/2000/svg" xmlns:cc="http://creativecommons.org/ns#" xmlns:dc="http://purl.org/dc/elements/1.1/" xmlns:rdf="http://www.w3.org/1999/02/22-rdf-syntax-ns#" xmlns:xlink="http://www.w3.org/1999/xlink">
<title>Ubuntu Studio v3</title>
<metadata>
<rdf:RDF>
<cc:Work rdf:about="">
<dc:format>image/svg+xml</dc:format>
<dc:type rdf:resource="http://purl.org/dc/dcmitype/StillImage"/>
<dc:title>Ubuntu Studio v3</dc:title>
<dc:creator>
<cc:Agent>
<dc:title>Cory Kontros</dc:title>
</cc:Agent>
</dc:creator>
<dc:description>New Ubuntu Studio logo based on the Ubuntu logo 1st used in Ubuntu 10.04.</dc:description>
<dc:date>August 8th 2010</dc:date>
</cc:Work>
</rdf:RDF>
</metadata>
<path d="m8 0c-4.4243 0-8 3.5682-8 7.9833 0 4.4151 3.5757 8.0167 8 8.0167s8-3.6016 8-8.0167c0-4.4151-3.5757-7.9833-8-7.9833zm1.6736 1.2359c0.08687-0.010882 0.17827-0.025024 0.26778 0 1.1938 0.334 2.213 0.91885 3.0795 1.8038 0.07531 0.074931 0.1345 0.19969 0.16737 0.30063 0.06255 0.18688 0.02624 0.37258-0.06695 0.53445-0.05591 0.097162-0.13254 0.17329-0.23431 0.23382-0.2714 0.16143-0.62088 0.12995-0.83682-0.10016-0.72364-0.73901-1.48-1.1908-2.477-1.4697-0.35807-0.099939-0.53534-0.47776-0.43515-0.83507 0.07519-0.268 0.27495-0.43511 0.53556-0.46764zm-1.7071 2.071c1.2175 0 2.4224 0.44659 3.3473 1.3695 1.8497 1.8458 1.8497 4.8681 0 6.714-1.8497 1.8459-4.8448 1.8459-6.6946 0-0.16606-0.16109-0.25971-0.41114-0.20084-0.63466 0.05892-0.22351 0.24464-0.37548 0.46862-0.43423 0.22398-0.05879 0.47456 9.9e-4 0.63598 0.16701 1.3584 1.3555 3.5286 1.3555 4.887 0 1.3584-1.3556 1.3584-3.5547 0-4.9102-1.3584-1.3556-3.5286-1.3556-4.887 0-0.23869 0.26228-0.64093 0.305-0.90377 0.066803-0.26283-0.23819-0.30563-0.673-0.06694-0.93528 0.01381-0.015307 0.05163-0.019539 0.06694-0.033344 0.92486-0.92293 2.1297-1.3695 3.3473-1.3695zm0 2.2046c0.64704 0 1.2837 0.24551 1.7741 0.73486 0.98078 0.97874 0.98078 2.5954 0 3.5741-0.98078 0.97873-2.5673 0.97873-3.5481 0-0.98078-0.97873-0.98078-2.5954 0-3.5741 0.49038-0.48936 1.127-0.73486 1.7741-0.73486zm-6.0921 0.23382c0.11224-9.903e-4 0.23065 0.010689 0.33473 0.066805 0.27755 0.15063 0.38953 0.46554 0.30126 0.76827-0.26799 0.99804-0.26799 1.8746 0 2.8727 0.0964 0.35835-0.10952 0.70545-0.46862 0.80166-0.35911 0.0962-0.74041-0.10929-0.83682-0.46764-0.32089-1.1951-0.32089-2.3456 0-3.5407 0.02625-0.10282 0.09715-0.18753 0.16737-0.26722 0.12918-0.14904 0.31503-0.23129 0.50209-0.23382zm2.0418 0.56785c0.13628-0.013907 0.27852 0.025026 0.40167 0.10016 0.24632 0.1503 0.38074 0.45788 0.30125 0.73486-0.17044 0.63474-0.17044 1.1356 0 1.7704 0.0919 0.34199-0.12591 0.70991-0.46862 0.80166-0.34271 0.091713-0.67793-0.12565-0.76987-0.46764-0.22099-0.82299-0.22099-1.6154 0-2.4384 0.03022-0.11965 0.07691-0.24993 0.16737-0.33403 0.1054-0.098446 0.23192-0.15314 0.3682-0.16702zm4.0502 0.43424c-0.32766 0-0.65131 0.14891-0.90377 0.40083-0.50491 0.50386-0.50491 1.2999 0 1.8038 0.50491 0.50386 1.3026 0.50386 1.8075 0 0.50491-0.50385 0.5049-1.2999 0-1.8038-0.25246-0.25193-0.57611-0.40083-0.90376-0.40083zm4.3849 5.144c0.14725-0.02 0.29978 0.01891 0.43514 0.10016 0.10154 0.06093 0.17876 0.13647 0.23431 0.23382 0.09255 0.16224 0.13028 0.38121 0.06695 0.56785-0.03331 0.1008-0.0918 0.19257-0.16736 0.26722-0.87001 0.88146-1.8844 1.4411-3.0795 1.7704-0.35846 0.09855-0.73804-0.10992-0.83682-0.46764-0.09876-0.35771 0.11016-0.7031 0.46862-0.80167 0.99808-0.27498 1.7504-0.7336 2.477-1.4697 0.10843-0.11465 0.25442-0.18046 0.40167-0.20042z" fill="#bebebe"/>
</svg>
